X:1
T:I Do Believe, CM
T:Traditional English melody
T:I Do Believe, CM
T:Public Domain
C:Traditional English melody
Z:Public Domain
%%score ( 1 2 ) ( 3 4 )
L:1/8
M:3/2
K:F
V:1 treble 
V:2 treble 
V:3 bass 
V:4 bass 
V:1
 [CF]4 | [CE]2 [EG]2 [EG]4 [EG]4 | F2 [FA]2 [FA]4 [FA]4 | [EG]2 [FA]2 [FB]4 [Fd]4 | %4
 [Fc]8 [FA]2 [Ac]2 | [Ac]2 [GB]2 [GB]4 [EG]2 [GB]2 | [GB]2 [FA]2 [FA]4 [CF]2 [FA]2 | %7
 [DA]2 [DG]2 [DB]4 E2 G2 | F8 |] %9
V:2
 x4 | x12 | F2 x10 | x12 | x12 | x12 | x12 | x8 C4 | F8 |] %9
V:3
 [F,A,]4 | [C,G,]2 [C,B,]2 [C,B,]4 [C,B,]4 | [F,A,]2 [F,C]2 [F,C]4 [F,C]4 | %3
 [C,C]2 [F,C]2 [D,B,]4 [B,,B,]4 | [F,A,]8 [F,C]4 | [C,C]2 [C,C]2 [C,C]4 [C,C]4 | %6
 [F,C]2 [F,C]2 [F,C]4 A,2 C2 | [B,,B,]2 [B,,B,]2 [B,,B,]4 G,2 B,2 | [F,A,]8 |] %9
V:4
 x4 | x12 | x12 | x12 | x12 | x12 | x8 F,4 | x8 C,4 | x8 |] %9

